lib/brands/icons/adobe-photoshop-express.svg

<svg xmlns="http://www.w3.org/2000/svg" fill="none" aria-hidden="true" viewBox="0 0 48 48"><g id="adobe-photoshop-express-Icon"><g id="Group"><path id="bg" fill="#001E36" d="M6 19.0286C6 14.4681 6 12.1879 6.88752 10.4461C7.6682 8.9139 8.9139 7.6682 10.4461 6.88752C12.1879 6 14.4681 6 19.0286 6H28.9714C33.5319 6 35.8121 6 37.5539 6.88752C39.0861 7.6682 40.3318 8.9139 41.1125 10.4461C42 12.1879 42 14.4681 42 19.0286V28.9714C42 33.5319 42 35.8121 41.1125 37.5539C40.3318 39.0861 39.0861 40.3318 37.5539 41.1125C35.8121 42 33.5319 42 28.9714 42H19.0286C14.4681 42 12.1879 42 10.4461 41.1125C8.9139 40.3318 7.6682 39.0861 6.88752 37.5539C6 35.8121 6 33.5319 6 28.9714V19.0286Z"/><g id="Vector"><path fill="#31A8FF" d="M16.5387 29.5613V17.9565C16.5387 17.8768 16.5706 17.829 16.6503 17.829C17.8192 17.829 18.9884 17.7652 20.1577 17.7652C22.6393 17.7156 25.084 19.1194 25.084 21.7823C25.084 25.3741 21.9198 25.9109 18.9939 25.9109V29.5294C19.0171 29.6454 18.9113 29.6888 18.8185 29.6888H16.6662C16.5865 29.7207 16.5387 29.6729 16.5387 29.5613ZM18.9939 20.0129V23.8067C19.7575 23.8831 20.6125 23.8571 21.3375 23.6155C22.1612 23.3648 22.6129 22.6926 22.6129 21.846C22.6454 21.1317 22.2144 20.4593 21.5447 20.2042C20.7973 19.9274 19.791 19.88 18.9939 20.0129Z"/><path fill="#31A8FF" d="M32.1146 23.1055C31.405 22.7339 30.5672 22.5795 29.771 22.5795C29.3593 22.5795 28.6391 22.6197 28.6391 23.1853C28.6391 23.7104 29.5592 24.0107 29.9305 24.1417C30.5363 24.3489 31.1262 24.6199 31.6682 24.9706C32.3928 25.4431 32.8321 26.2056 32.8321 27.0748C32.8921 29.0548 30.8307 29.9834 29.1015 29.9441C28.1995 29.9441 27.2451 29.8271 26.4231 29.434C26.3434 29.3862 26.2955 29.3065 26.2955 29.2108V27.2501C26.2955 27.19 26.3953 27.0831 26.439 27.1704C27.2636 27.659 28.2146 27.8697 29.1652 27.9037C29.6004 27.9254 30.4088 27.855 30.4088 27.2661C30.36 26.6806 29.4778 26.4237 29.0217 26.2777C27.686 25.8326 26.2796 24.9192 26.2796 23.3606C26.2796 21.4342 28.1449 20.555 29.8348 20.555C30.6957 20.5551 31.4923 20.5816 32.2103 20.9217C32.3239 20.9596 32.3378 21.0545 32.3378 21.1608V22.994C32.3378 23.1084 32.2095 23.1688 32.1146 23.1055Z"/><path fill="#31A8FF" d="M23.9999 39.4286C23.3781 39.4286 22.7882 39.1894 22.3578 38.7431L9.25284 25.6399C8.34411 24.7313 8.34411 23.2647 9.25284 22.3561L22.3578 9.25287C23.2665 8.34426 24.7332 8.34426 25.642 9.25287L38.7469 22.3561C39.6556 23.2647 39.6556 24.7313 38.7469 25.6399L25.642 38.7431C25.2115 39.1735 24.6216 39.4286 23.9999 39.4286ZM22.8042 38.2968C23.4578 38.9503 24.526 38.9503 25.1796 38.2968L38.2845 25.1935C38.9382 24.54 38.9382 23.4719 38.2845 22.8184L25.1796 9.71515C24.526 9.06159 23.4578 9.06159 22.8042 9.71515L9.69924 22.8184C9.04558 23.4719 9.04558 24.54 9.69924 25.1935L22.8042 38.2968Z"/></g></g></g></svg>

<svg xmlns="http://www.w3.org/2000/svg" fill="none" aria-hidden="true" viewBox="0 0 48 48"><path fill="#001E36" d="M6 19.029c0-4.56 0-6.841.888-8.583a8.143 8.143 0 0 1 3.558-3.558C12.188 6 14.468 6 19.03 6h9.942c4.56 0 6.841 0 8.583.888a8.143 8.143 0 0 1 3.558 3.558C42 12.188 42 14.468 42 19.03v9.942c0 4.56 0 6.841-.888 8.583a8.143 8.143 0 0 1-3.558 3.558C35.812 42 33.532 42 28.97 42h-9.94c-4.56 0-6.841 0-8.583-.888a8.143 8.143 0 0 1-3.558-3.558C6 35.812 6 33.532 6 28.97v-9.94Z"/><g fill="#31A8FF"><path d="M16.539 29.561V17.956c0-.08.032-.127.111-.127 1.17 0 2.338-.064 3.508-.064 2.481-.05 4.926 1.354 4.926 4.017 0 3.592-3.164 4.129-6.09 4.129v3.618c.023.116-.083.16-.175.16h-2.153c-.08.032-.127-.016-.127-.128Zm2.455-9.548v3.794c.764.076 1.619.05 2.343-.191.824-.251 1.276-.923 1.276-1.77a1.682 1.682 0 0 0-1.068-1.642c-.748-.277-1.754-.324-2.551-.191Zm13.121 3.092c-.71-.371-1.548-.526-2.344-.526-.412 0-1.132.04-1.132.606 0 .525.92.826 1.291.957a7.9 7.9 0 0 1 1.738.829c.725.472 1.164 1.235 1.164 2.104.06 1.98-2.001 2.908-3.73 2.87-.902 0-1.857-.118-2.679-.511a.254.254 0 0 1-.127-.223v-1.96c0-.061.1-.168.143-.08.825.488 1.776.699 2.726.733.435.021 1.244-.049 1.244-.638-.049-.585-.931-.842-1.387-.988-1.336-.445-2.742-1.359-2.742-2.917 0-1.927 1.865-2.806 3.555-2.806.86 0 1.657.027 2.375.367.114.038.128.133.128.239v1.833c0 .114-.129.175-.223.111Z"/><path d="M24 39.429c-.622 0-1.212-.24-1.642-.686L9.253 25.64a2.319 2.319 0 0 1 0-3.284L22.358 9.253a2.32 2.32 0 0 1 3.284 0l13.105 13.103a2.319 2.319 0 0 1 0 3.284L25.642 38.743A2.33 2.33 0 0 1 24 39.43Zm-1.196-1.132a1.684 1.684 0 0 0 2.376 0l13.105-13.103a1.683 1.683 0 0 0 0-2.376L25.18 9.715a1.684 1.684 0 0 0-2.376 0L9.7 22.818a1.683 1.683 0 0 0 0 2.375l13.105 13.104Z"/></g></svg>
